X:19
T:Reel 19
M:4/4
K:Dmaj
L:1/8
e|dcde dFF2|dced fgec|dcdc dfed|cAGF EDDE|FDFA d3A|cAGF EFGE|Dddc defg|afge fdd|c|dfaf gfge|dfed cAAB|=cAAf g2ed|=cdeg fdec|dfaf gfeg|fded cAAG|f2fd efge|fdec dBA|
